X:1
T:Broad Cupid
S:as played by the City of Auckland Morris Dancers
N:
H:abcTranscriber: Alex Boster 
A:Badby
O:English
R:
P:A(AB$^2$)$^4$
%P:A(AB2)4
%:
%:
K:G
M:2/4
L:1/8
P:A
 dc | B2 B2 | B2 G2 | AGAB | G2 AB | cBAG | GABc | d2 ec | B2 A2 |
      B2 B2 | B2 G2 | AGAB | G2 AB | cBAG | GABc | A4    | G4    ||
P:B
||  GABc | d2 d2 | d2 e2 | d2 d2 | e2 dd | g2 B2 | d2 ec | B2 A2 |
   B2 B2 | B2 G2 | AGAB  | G2 AB | cBAG  | GABc  | A4    | G4    ||
